X: 52
T: Missa Mi mi / Agnus Dei
N: Derived from Ock1010e-Missa_Mi_mi-Agnus.krn
C: Johannes Ockeghem
%%abc-version 2.0
%%abcx-abcm2ps-target-version 5.9.1 (29 Sep 2008)
%%abc-creator hum2abc beta
%%abcx-conversion-date 2019/02/17 07:26:15
%%abc-edited-by Jesse Rodin
%%abc-edited-by Will Watson 14/2/2012
%%abcx-initial-encoding-date 2012/02/14/
%%humdrum-veritas 1583385251
%%humdrum-veritas-data 2870982658
%%linebreak <none>
%%barnumbers 0
L: 1/4
M: 3/1
Q: 1/2=120
%%staves [1 2 3 4]
V: 1 clef=treble
V: 2 clef=treble-8
V: 3 clef=treble-8
V: 4 clef=bass
K: C
[V:1] E8F4 | 
[V:2] B8c4 | 
[V:3] E8A4 | 
[V:4] E,6A,,2A,,4 | 
[V:1] G4A6GF | 
[V:2] B4A8 | 
[V:3] G4c6BA | 
[V:4] E,4F,8 | 
[V:1] G8G4 | 
[V:2] e6c2c2B2 | 
[V:3] B4E4z4 | 
[V:4] E,4z4E,4 | 
[V:1] A4B6A2 | 
[V:2] d12 | 
[V:3] F4G8 | 
[V:4] D,4G,,8 | 
[V:1] c4B6A2 | 
[V:2] e4d8 | 
[V:3] G6A2B4 | 
[V:4] C,4G,8 | 
[V:1] A4B2G4FG | 
[V:2] c2e4dcB4 | 
[V:3] c4G4z4 | 
[V:4] A,4E,8 | 
[V:1] A6F2G4 | 
[V:2] A4d4c3B | 
[V:3] z2D4A2G2E2 | 
[V:4] F,6D,2E,4 | 
[V:1] A4B8 | 
[V:2] d12 | 
[V:3] F4G8 | 
[V:4] D,4z4G,4 | 
[V:1] G4A6F2 | 
[V:2] e4c3BA4 | 
[V:3] B4A4c4 | 
[V:4] E,4F,8 | 
[V:1] E2D4G2F3E | 
[V:2] G4d8 | 
[V:3] B4A8 | 
[V:4] G,4D,8 | 
[V:1] G4z4G4 | 
[V:2] c2B4A4G2 | 
[V:3] z2G4E2D4 | 
[V:4] E,6C,2B,,4 | 
[V:1] C6D2E4 | 
[V:2] A3FE2D2z2A2- | 
[V:3] E4z4z4 | 
[V:4] A,,6B,,2C,2A,,2- | 
[V:1] F4E2D3CA,2 | 
[V:2] A2B2c2A4D2 | 
[V:3] z12 | 
[V:4] A,,2D,2C,2D,2F,4 | 
[V:1] G,2B,4A,4^G,2 | 
[V:2] E2F4E4D2 | 
[V:3] z12 | 
[V:4] E,2D,2A,,2C,2B,,4 | 
[V:1] A,4B,2D4C2 | 
[V:2] E2F2G4E4 | 
[V:3] c3AG2B2A4 | 
[V:4] A,,4z4A,,4 | 
[V:1] D3EF2G4F2 | 
[V:2] z2F4E2D4 | 
[V:3] D4z4A4 | 
[V:4] B,,2D,4C,2D,4 | 
[V:1] G4E2F2D4 | 
[V:2] z12 | 
[V:3] G6A2B4 | 
[V:4] E,2G,4F,2G,4 | 
[V:1] z2C2D2E4C2 | 
[V:2] z12 | 
[V:3] c2A2B4c3B/A/ | 
[V:4] A,4G,4A,2E,2- | 
[V:1] B,2C3A,A,4G,2 | 
[V:2] E6F2G4 | 
[V:3] G2A2c4B4 | 
[V:4] E,2A,,4C,D,E,4 | 
[V:1] C4D2E2F2G2- | 
[V:2] E4G4z4 | 
[V:3] A4B2c2A2G2 | 
[V:4] A,,4G,,2C,2D,2E,2- | 
[V:1] G2E2D2F2G2A2- | 
[V:2] z2G2d4e2A2 | 
[V:3] c2B2GA2FE2D2- | 
[V:4] E,F,G,3F,D,2E,2F,2 | 
[V:1] AGA4G2EF2D | 
[V:2] d4A3Bc4 | 
[V:3] D2F3DE2A,4 | 
[V:4] D,4F,2E,2A,3G, | 
[V:1] C2F2G2E4D2 | 
[V:2] c2d3BB2cA2G | 
[V:3] z2A2G4A4 | 
[V:4] E,2D,2E,2G,2F,4 | 
[V:1] E12 ||  
[V:2] B4c4B4 ||  
[V:3] E12 ||  
[V:4] E,12 ||  
[V:1] [M:3/1]z12 | 
[V:2] [M:3/1]B8c4 | 
[V:3] [M:3/1]z12 | 
[V:4] [M:3/1]E,6A,,2A,,4 | 
[V:1] z12 | 
[V:2] B2c4A2B4 | 
[V:3] z12 | 
[V:4] E,4F,2A,4G,2 | 
[V:1] z12 | 
[V:2] A12 | 
[V:3] z12 | 
[V:4] A,2F,4E,D,C,2D,2 | 
[V:1] z12 | 
[V:2] A4G2F2E4 | 
[V:3] z12 | 
[V:4] A,,2D,2E,2D,4C,2 | 
[V:1] z12 | 
[V:2] D8C4 | 
[V:3] z12 | 
[V:4] B,,2G,,4B,,2A,,2G,,A,, | 
[V:1] z12 | 
[V:2] D4G2F2G2E2 | 
[V:3] z12 | 
[V:4] B,,2G,,4D,3B,,C,2 | 
[V:1] z12 | 
[V:2] F2D4G2F2EF | 
[V:3] z12 | 
[V:4] D,2G,,2B,,2C,2A,,2D,2 | 
[V:1] z12 | 
[V:2] G6FEF2G2 | 
[V:3] z12 | 
[V:4] C,2E,4D,C,D,2B,,2 | 
[V:1] z12 | 
[V:2] A4B2A4^G2 | 
[V:3] z12 | 
[V:4] C,2A,,2G,,2A,,2B,,4 | 
[V:1] z12 | 
[V:2] A8z4 | 
[V:3] z12 | 
[V:4] A,,4z4C,4 | 
[V:1] z12 | 
[V:2] G8A4 | 
[V:3] z12 | 
[V:4] C,6B,,2C,2A,,2 | 
[V:1] z12 | 
[V:2] B4A2G4A2- | 
[V:3] z12 | 
[V:4] G,,4C,4E,2F,2- | 
[V:1] z12 | 
[V:2] ABc4A2B4 | 
[V:3] z12 | 
[V:4] F,2E,2C,4D,4 | 
[V:1] z12 | 
[V:2] c6B2A4 | 
[V:3] z12 | 
[V:4] C,2E,2F,2G,4F,2 | 
[V:1] z12 | 
[V:2] B2G4c2B2A2- | 
[V:3] z12 | 
[V:4] G,4C,4G,4 | 
[V:1] z12 | 
[V:2] A2G2E4D4 | 
[V:3] z12 | 
[V:4] F,2E,4C,2B,,4 | 
[V:1] z12 | 
[V:2] A4G4A4 | 
[V:3] z12 | 
[V:4] A,,4E,4D,4 | 
[V:1] z12 | 
[V:2] c4B4A3B | 
[V:3] z12 | 
[V:4] E,4G,4F,4 | 
[V:1] z12 | 
[V:2] cde4c2B4 | 
[V:3] z12 | 
[V:4] E,3F,G,A,A,4G,2 | 
[V:1] z12 | 
[V:2] A4e2e4d2 | 
[V:3] z12 | 
[V:4] A,2F,2E,2G,2F,4 | 
[V:1] z12 | 
[V:2] e2c2B2d2c4 | 
[V:3] z12 | 
[V:4] E,4G,4C,2F,2 | 
[V:1] z12 | 
[V:2] B4G2A4G2 | 
[V:3] z12 | 
[V:4] G,2E,4C,2D,2B,,2 | 
[V:1] z12 | 
[V:2] c3AB2A4d2 | 
[V:3] z12 | 
[V:4] A,,4G,,2C,2D,2F,2 | 
[V:1] z12 | 
[V:2] c2B4A4^G2 | 
[V:3] z12 | 
[V:4] E,2D,2A,,4B,,4 | 
[V:1] C6B,A,G,4 | 
[V:2] A8E4- | 
[V:3] z12 | 
[V:4] A,,8C,4- | 
[V:1] C6D4CD | 
[V:2] E4F8 | 
[V:3] z12 | 
[V:4] C,2A,,2A,,2F,,2A,,2_B,,2 | 
[V:1] E4G4A4 | 
[V:2] E6D2F4 | 
[V:3] z12 | 
[V:4] G,,2C,4B,,2A,,4 | 
[V:1] B4A2G2c4 | 
[V:2] G4A2c3BA2 | 
[V:3] z12 | 
[V:4] G,,4C,6D,2 | 
[V:1] B2G2A2G4c2- | 
[V:2] G4c4B2c2 | 
[V:3] z12 | 
[V:4] E,4C,4z4 | 
[V:1] c2B2c4B2G2 | 
[V:2] d4c2e3dB2 | 
[V:3] z12 | 
[V:4] G,4A,4E,4 | 
[V:1] A2c3BAGA2F2 | 
[V:2] c3AA2d2c2d2- | 
[V:3] z12 | 
[V:4] z2F,8D,2 | 
[V:1] E4D8 | 
[V:2] d2^c2d4B2G2 | 
[V:3] z12 | 
[V:4] A,,4D,4G,3E, | 
[V:1] z2G2A2c3BA2- | 
[V:2] A2c3BAGA2F2 | 
[V:3] z12 | 
[V:4] F,2E,2C,4A,,4 | 
[V:1] A2G2A2F2E2G2 | 
[V:2] E4D4z2G2 | 
[V:3] z12 | 
[V:4] C,4z2D,2C,2E,2 | 
[V:1] F4E8 | 
[V:2] A2c3BA2G2A2 | 
[V:3] z12 | 
[V:4] D,F,2E,C,3D,E,2A,,2- | 
[V:1] z2G2A2c4B2 | 
[V:2] E2G2F4E2G2 | 
[V:3] z12 | 
[V:4] A,,2E,2D,2C,2E,4 | 
[V:1] c2A2GG2FA4 | 
[V:2] A2c2B2e4d2 | 
[V:3] z12 | 
[V:4] A,,4E,4F,4 | 
[V:1] G2A3GFED4- | 
[V:2] e4c2d3cBA | 
[V:3] z12 | 
[V:4] E,2C,2E,2D,2G,2G,,2- | 
[V:1] D2E2D2F3GA2- | 
[V:2] G6c2B2A2 | 
[V:3] z12 | 
[V:4] G,,2C,2B,,2A,,2D,2C,D,- | 
[V:1] ABc2BGG4^F2 | 
[V:2] d2c2d2B2A4 | 
[V:3] z12 | 
[V:4] D,B,,A,,2G,,4D,4 | 
[V:1] G12 ||  
[V:2] G12 ||  
[V:3] z12 ||  
[V:4] G,,12 ||  
[V:1] [M:2/1]G8- | 
[V:2] [M:2/1]B8- | 
[V:3] [M:2/1]G8- | 
[V:4] [M:2/1]E,8- | 
[V:1] G4E4 | 
[V:2] B8 | 
[V:3] G8 | 
[V:4] E,4A,,4 | 
[V:1] E8 | 
[V:2] c8 | 
[V:3] A8 | 
[V:4] A,,8 | 
[V:1] G8 | 
[V:2] e8 | 
[V:3] B8 | 
[V:4] E,8 | 
[V:1] F4D4- | 
[V:2] d8 | 
[V:3] A8- | 
[V:4] F,8- | 
[V:1] D4C2B,2 | 
[V:2] D4E4- | 
[V:3] A4G4 | 
[V:4] F,4E,4 | 
[V:1] C6B,2 | 
[V:2] E4C4 | 
[V:3] G8- | 
[V:4] E,8- | 
[V:1] G,8 | 
[V:2] c2B4AB | 
[V:3] G8 | 
[V:4] E,8 | 
[V:1] G8 | 
[V:2] c8- | 
[V:3] E8 | 
[V:4] C,8 | 
[V:1] A4B4- | 
[V:2] c4B4 | 
[V:3] F4G4- | 
[V:4] A,,4G,,4 | 
[V:1] B2A2A4 | 
[V:2] e6dc | 
[V:3] G2E2E4- | 
[V:4] C,8 | 
[V:1] G4c4- | 
[V:2] B4c4 | 
[V:3] E4C4 | 
[V:4] E,8 | 
[V:1] c4B4 | 
[V:2] d8 | 
[V:3] F6G2 | 
[V:4] D,8 | 
[V:1] A2A4F2 | 
[V:2] c4d4 | 
[V:3] A8 | 
[V:4] F,4D,4 | 
[V:1] E4B4 | 
[V:2] B8 | 
[V:3] G8 | 
[V:4] E,8 | 
[V:1] c2A2A4- | 
[V:2] A8 | 
[V:3] A4c4 | 
[V:4] A,,8 | 
[V:1] A4^G4 | 
[V:2] E8 | 
[V:3] B8 | 
[V:4] z8 | 
[V:1] A8 | 
[V:2] z4e4- | 
[V:3] A6GF | 
[V:4] A,,8- | 
[V:1] z8 | 
[V:2] e2dcB4 | 
[V:3] E8 | 
[V:4] A,,4G,,4 | 
[V:1] z8 | 
[V:2] A8 | 
[V:3] F8 | 
[V:4] F,,2G,,2A,,2B,,2 | 
[V:1] E8 | 
[V:2] G4A4- | 
[V:3] E4C4 | 
[V:4] C,8 | 
[V:1] F8 | 
[V:2] A4B4 | 
[V:3] D8 | 
[V:4] z8 | 
[V:1] E4C4 | 
[V:2] c4A4 | 
[V:3] C4c4- | 
[V:4] C,8 | 
[V:1] D8 | 
[V:2] G8 | 
[V:3] c4B4 | 
[V:4] G,,8 | 
[V:1] C4c4 | 
[V:2] E8 | 
[V:3] A8 | 
[V:4] C,8 | 
[V:1] B4A4- | 
[V:2] D4C4 | 
[V:3] G4F4 | 
[V:4] G,,4A,,4 | 
[V:1] A2G2G4 | 
[V:2] z4c4 | 
[V:3] E8 | 
[V:4] C,8 | 
[V:1] z4F4 | 
[V:2] d4A4- | 
[V:3] D8 | 
[V:4] z4D,4 | 
[V:1] E4D4- | 
[V:2] A4G4 | 
[V:3] C4B,4 | 
[V:4] A,,4B,,4 | 
[V:1] D2C2C4 | 
[V:2] A2E4F2 | 
[V:3] A,8 | 
[V:4] C,4A,,4 | 
[V:1] B,4C2D2- | 
[V:2] G4z4 | 
[V:3] E6D2 | 
[V:4] G,,4A,,2B,,2 | 
[V:1] D2B,2A,2G,2 | 
[V:2] D4C4 | 
[V:3] G4F2E2 | 
[V:4] G,,4A,,4 | 
[V:1] B,4G,4 | 
[V:2] D4z2G2- | 
[V:3] G2D2E4 | 
[V:4] G,,4C,4 | 
[V:1] D4E4 | 
[V:2] G4B4 | 
[V:3] D4G4 | 
[V:4] B,,2G,,2z2G,,2 | 
[V:1] D4G4 | 
[V:2] A4d4 | 
[V:3] F4G4 | 
[V:4] D,4G,,4 | 
[V:1] F6A2- | 
[V:2] c4d4 | 
[V:3] A6B2 | 
[V:4] z4D,4 | 
[V:1] A2G2G4- | 
[V:2] e4c4 | 
[V:3] c4G4 | 
[V:4] C,4E,4 | 
[V:1] G2E2^F4 | 
[V:2] d8- | 
[V:3] A8 | 
[V:4] D,8 | 
[V:1] G8 | 
[V:2] d4B4- | 
[V:3] G8- | 
[V:4] z4E,4- | 
[V:1] z8 | 
[V:2] B4c4- | 
[V:3] G8 | 
[V:4] E,4C,4 | 
[V:1] E8 | 
[V:2] c2BAG4 | 
[V:3] G8- | 
[V:4] C,8 | 
[V:1] E8 | 
[V:2] B4c4 | 
[V:3] G8 | 
[V:4] z4C,4 | 
[V:1] F8- | 
[V:2] d4c4 | 
[V:3] z4A4- | 
[V:4] B,,4A,,4- | 
[V:1] F4E4 | 
[V:2] F4G4- | 
[V:3] A4B4 | 
[V:4] A,,4G,,4 | 
[V:1] E8 | 
[V:2] G4G4 | 
[V:3] c8 | 
[V:4] C,8 | 
[V:1] D4E4 | 
[V:2] z2B4c2 | 
[V:3] B4G4 | 
[V:4] G,6F,2 | 
[V:1] F4G4- | 
[V:2] d4e4- | 
[V:3] A4E4- | 
[V:4] D,4C,4- | 
[V:1] G4F4 | 
[V:2] e4A4 | 
[V:3] E4D4 | 
[V:4] C,4D,4 | 
[V:1] D4C4 | 
[V:2] B4c4 | 
[V:3] G4A4 | 
[V:4] B,,4A,,4 | 
[V:1] D8 | 
[V:2] A8 | 
[V:3] F8 | 
[V:4] D,8 | 
[V:1] E6F2 | 
[V:2] z4c4- | 
[V:3] E8 | 
[V:4] A,,8 | 
[V:1] G4A4- | 
[V:2] c2Bcd4 | 
[V:3] E4D4 | 
[V:4] z8 | 
[V:1] A4c4- | 
[V:2] c4e4- | 
[V:3] F4E4 | 
[V:4] A,,8- | 
[V:1] c2B2A4 | 
[V:2] e2d2c2A2 | 
[V:3] A8 | 
[V:4] A,,8- | 
[V:1] A8 | 
[V:2] c8- | 
[V:3] E8- | 
[V:4] A,,8 | 
[V:1] G8- | 
[V:2] c4B4 | 
[V:3] E8 | 
[V:4] E,8- | 
[V:1] G4E4 | 
[V:2] B8- | 
[V:3] E8- | 
[V:4] E,8- | 
[V:1] E8 & B8 |]  
[V:2] B8 |]  
[V:3] E8 |]  
[V:4] E,8 |]  



